X: 0040
T: Psalm fran \"Alvdals \AAsen
O: upptecknad av Pastor Alb. Lindberg
%R: polska
B: Paul B\"ackstr\"om's "L\aatar fr\aan Dalarna" collection" 1974
Z: 2022 John Chambers <jc:trillian.mit.edu>
M: C
L: 1/8
N: K.E.F.36.
K: A
% - - - - - - - - - -
(c^e) | (f3 g) (f^e) (fa) | (g3 ^e) c2 "^,"x (ce) | (f3 g) f2 ^d2 | =e6 (c^e) |
(f3 =e) (c=d) (ef) | (d3 c) B2 A2 | B4 c4- | c6 :||: g2 | (a3 b) (ag) (fa) | (g3 a) g3 ","x g |
(a3 b) (ag) (fa) | g6 ","x (c^e) | (f3 =e) (cd) (ef) | (d3 c) B2 A2 | B4 c4- | c6 :|
% - - - - - - - - - -

%%sep 2 1 500
%%sep 1 1 500

